svg/24/logo-snapchat.svg

<svg width="24" height="24" viewBox="0 0 24 24" fill="currentColor" xmlns="http://www.w3.org/2000/svg"><path d="M21.5808 16.8988C21.4478 16.5341 21.1915 16.337 20.9007 16.1792C20.8465 16.1497 20.7972 16.1201 20.7528 16.1004C20.6641 16.056 20.5754 16.0117 20.4867 15.9673C19.5798 15.4843 18.8701 14.883 18.3821 14.1634C18.2441 13.9613 18.1209 13.7445 18.0223 13.5227C17.978 13.4044 17.9829 13.3354 18.0125 13.2713C18.0421 13.222 18.0815 13.1826 18.1308 13.1481C18.2885 13.0446 18.4462 12.9411 18.5546 12.8721C18.7469 12.744 18.9046 12.6454 19.0031 12.5764C19.3728 12.3152 19.634 12.0392 19.7967 11.7287C20.0283 11.2949 20.0579 10.7873 19.8804 10.3289C19.634 9.67834 19.0229 9.27912 18.2786 9.27912C18.1209 9.27912 17.9681 9.2939 17.8104 9.3284C17.771 9.33826 17.7266 9.34812 17.6872 9.35798C17.6921 8.9144 17.6823 8.44617 17.6428 7.98288C17.5048 6.36135 16.9331 5.51362 16.3417 4.83839C15.9622 4.41453 15.5186 4.05473 15.0208 3.7738C14.1238 3.26122 13.1035 3 11.9946 3C10.8856 3 9.87033 3.26122 8.97332 3.7738C8.47552 4.05473 8.03194 4.41453 7.65243 4.83839C7.061 5.51362 6.4942 6.36628 6.35127 7.98288C6.31184 8.44617 6.30198 8.9144 6.30691 9.35798C6.26748 9.34812 6.22805 9.33826 6.18369 9.3284C6.0309 9.2939 5.87319 9.27912 5.7204 9.27912C4.97617 9.27912 4.36502 9.68327 4.11858 10.3289C3.94115 10.7873 3.97072 11.2949 4.20237 11.7287C4.36502 12.0392 4.62624 12.3152 4.99589 12.5764C5.09446 12.6454 5.24725 12.744 5.44439 12.8721C5.5479 12.9411 5.70068 13.0397 5.85347 13.1383C5.90769 13.1728 5.95205 13.2171 5.98655 13.2713C6.01612 13.3354 6.02105 13.4044 5.97176 13.5326C5.87319 13.7494 5.7549 13.9613 5.6169 14.1585C5.13882 14.8584 4.4488 15.4547 3.5715 15.9328C3.10821 16.1792 2.6252 16.3419 2.41819 16.8988C2.26541 17.3178 2.36398 17.7909 2.75334 18.1951C2.89627 18.3429 3.06385 18.4711 3.24621 18.5697C3.62572 18.7767 4.02987 18.9393 4.45373 19.0527C4.54245 19.0773 4.62131 19.1118 4.69524 19.1611C4.83817 19.2843 4.81845 19.4716 5.00574 19.7476C5.09939 19.8905 5.2226 20.0137 5.36061 20.1123C5.75983 20.3883 6.20834 20.4031 6.68149 20.4228C7.11028 20.4376 7.59329 20.4573 8.15023 20.6397C8.38188 20.7136 8.61845 20.8615 8.89446 21.034C9.55983 21.4431 10.4667 22 11.9897 22C13.5126 22 14.4244 21.4381 15.0947 21.0291C15.3707 20.8615 15.6073 20.7136 15.8291 20.6397C16.3811 20.4573 16.869 20.4376 17.2978 20.4228C17.771 20.4031 18.2195 20.3883 18.6187 20.1123C18.7863 19.994 18.9243 19.8462 19.0229 19.6687C19.1609 19.4371 19.1559 19.2745 19.2841 19.1611C19.3531 19.1118 19.4319 19.0773 19.5108 19.0576C19.9347 18.9442 20.3487 18.7816 20.7331 18.5697C20.9253 18.4661 21.1028 18.3281 21.2506 18.1655L21.2555 18.1606C21.64 17.7663 21.7336 17.303 21.5808 16.8988ZM20.2304 17.6233C19.4073 18.0768 18.8553 18.0275 18.4314 18.3035C18.0667 18.5351 18.2836 19.0379 18.0223 19.2202C17.6971 19.442 16.7409 19.2054 15.5087 19.6145C14.4885 19.9497 13.8428 20.9206 12.0094 20.9206C10.1759 20.9206 9.54504 19.9546 8.51002 19.6145C7.27786 19.2054 6.3217 19.447 5.9964 19.2202C5.73518 19.0379 5.94712 18.5351 5.58732 18.3035C5.15853 18.0275 4.61145 18.0768 3.78836 17.6233C3.261 17.3326 3.56164 17.1551 3.73415 17.0713C6.72092 15.6272 7.199 13.3946 7.21871 13.227C7.24336 13.0249 7.27293 12.8672 7.05114 12.6651C6.83921 12.468 5.8929 11.8815 5.62675 11.6991C5.19303 11.3935 5.00081 11.0929 5.14375 10.7183C5.24232 10.462 5.48382 10.3634 5.73518 10.3634C5.81404 10.3634 5.8929 10.3733 5.97176 10.3881C6.44984 10.4916 6.91314 10.7281 7.17928 10.7971C7.21378 10.807 7.24336 10.8119 7.27786 10.8119C7.42079 10.8119 7.47007 10.738 7.46022 10.5754C7.43065 10.0529 7.35671 9.03761 7.4405 8.08638C7.55386 6.78029 7.9728 6.1297 8.47552 5.55798C8.71703 5.28197 9.84569 4.08923 12.0094 4.08923C14.1731 4.08923 15.3017 5.27704 15.5432 5.55305C16.0459 6.12477 16.4649 6.77536 16.5782 8.08145C16.662 9.03268 16.5881 10.048 16.5536 10.5704C16.5437 10.7429 16.593 10.807 16.736 10.807C16.7705 10.807 16.8 10.8021 16.8345 10.7922C17.1007 10.7281 17.564 10.4866 18.0421 10.3831C18.1209 10.3634 18.1998 10.3585 18.2786 10.3585C18.53 10.3585 18.7715 10.4571 18.8701 10.7134C19.013 11.0879 18.8208 11.3886 18.3871 11.6942C18.1258 11.8765 17.1795 12.463 16.9627 12.6602C16.7409 12.8623 16.7705 13.02 16.7951 13.222C16.8148 13.3896 17.2929 15.6223 20.2797 17.0664C20.4571 17.1502 20.7528 17.3326 20.2304 17.6233Z"/></svg>

<svg xmlns="http://www.w3.org/2000/svg" width="24" height="24" fill="currentColor" viewBox="0 0 24 24">
  <path d="M21.58 16.899c-.132-.365-.388-.562-.68-.72-.053-.03-.103-.059-.147-.079l-.266-.133c-.907-.483-1.617-1.084-2.105-1.804a4.099 4.099 0 0 1-.36-.64c-.044-.119-.04-.188-.01-.252a.402.402 0 0 1 .119-.123c.157-.103.315-.207.424-.276.192-.128.35-.227.448-.296.37-.26.631-.537.794-.847a1.68 1.68 0 0 0 .083-1.4c-.246-.65-.857-1.05-1.601-1.05-.158 0-.31.015-.469.05l-.123.029c.005-.444-.005-.912-.044-1.375-.138-1.622-.71-2.47-1.301-3.145a5.206 5.206 0 0 0-1.321-1.064C14.124 3.26 13.103 3 11.995 3c-1.11 0-2.125.261-3.022.774-.497.28-.941.64-1.32 1.064-.592.676-1.159 1.528-1.302 3.145-.04.463-.049.931-.044 1.375l-.123-.03a2.115 2.115 0 0 0-.464-.049c-.744 0-1.355.404-1.601 1.05-.178.458-.148.966.083 1.4.163.31.424.586.794.847.098.07.251.168.448.296.104.07.257.168.41.266a.429.429 0 0 1 .133.133c.03.064.034.133-.015.262a3.933 3.933 0 0 1-.355.626c-.478.7-1.168 1.296-2.046 1.774-.463.246-.946.409-1.153.966-.153.419-.054.892.335 1.296.143.148.31.276.493.375.38.207.784.37 1.208.483a.82.82 0 0 1 .241.108c.143.123.123.31.31.587a1.4 1.4 0 0 0 .356.364c.399.276.847.291 1.32.31.43.016.912.035 1.47.218.23.074.467.221.743.394.666.41 1.573.966 3.096.966 1.523 0 2.434-.562 3.105-.97.276-.169.512-.316.734-.39.552-.183 1.04-.202 1.469-.217.473-.02.922-.035 1.32-.31.168-.119.306-.267.405-.444.138-.232.133-.395.261-.508a.673.673 0 0 1 .227-.103 5.46 5.46 0 0 0 1.222-.488 1.96 1.96 0 0 0 .518-.404l.005-.005c.384-.395.478-.858.325-1.262Zm-1.35.724c-.823.454-1.375.404-1.799.68-.364.232-.147.735-.409.917-.325.222-1.281-.015-2.513.395-1.02.335-1.666 1.306-3.5 1.306-1.833 0-2.464-.966-3.499-1.306-1.232-.41-2.188-.168-2.514-.395-.26-.182-.049-.685-.409-.916-.428-.276-.976-.227-1.799-.68-.527-.291-.226-.469-.054-.553 2.987-1.444 3.465-3.676 3.485-3.844.024-.202.054-.36-.168-.562-.212-.197-1.158-.783-1.424-.966-.434-.306-.626-.606-.483-.98.098-.257.34-.356.591-.356.079 0 .158.01.237.025.478.104.941.34 1.207.41a.34.34 0 0 0 .099.014c.143 0 .192-.074.182-.237-.03-.522-.103-1.537-.02-2.489.114-1.306.533-1.956 1.036-2.528.241-.276 1.37-1.469 3.533-1.469 2.164 0 3.293 1.188 3.534 1.464.503.572.922 1.222 1.035 2.528.084.952.01 1.967-.024 2.49-.01.172.039.236.182.236a.34.34 0 0 0 .098-.015c.267-.064.73-.305 1.208-.409a.965.965 0 0 1 .237-.024c.251 0 .492.098.591.354.143.375-.05.676-.483.981-.261.182-1.207.769-1.424.966-.222.202-.193.36-.168.562.02.168.498 2.4 3.485 3.844.177.084.473.267-.05.557Z"/>
</svg>
